X:1
T:MAIS UM FADO.
T:MAIS UM FADO.
T:F. BAHIA.
T:N. &amp; C. 497
T:N. &amp; C. 497
T:N. &amp; C. 497
T:N. &amp; C. 497
T:N. &amp; C. 497
T:N. &amp; C. 497
C:F. BAHIA.
Z:N. & C. 497
%%score { ( 1 2 4 ) | ( 3 5 ) }
L:1/8
Q:1/4=90
M:2/4
K:Gb
V:1 treble nm="Piano" snm="Pno."
V:2 treble 
V:4 treble 
V:3 bass 
V:5 bass 
V:1
"^Allegretto."!f! z .e'({d'e'} d'/c'/b/a/ | !>!g/b/e/g/ !>!f/a/=d/f/ | %2
 !>!e) !fermata!z!pp! z/ B/G/e/ | (E/B/G/e/)"^m.g." z/ (B/G/E/) | (=D/B/A/=d/) z .[DABd] | %5
 (=D/B/A/=d/) z/ (B/A/D/) | (E/B/G/e/) z .[EGBe] | (E/B/G/e/) z/ (B/G/E/) | %8
 (=D/B/A/=d/) z .[DABd] | (=D/B/A/=d/) z/ (B/A/D/) | (E/B/G/e/) z .[EGBe] | %11
 (C/G/E/c/) z/ (G/E/C/) | (B,/G/E/B/) z .[B,EGB] | (A,/F/C/A/) z/ (F/C/A,/) | %14
 (G,/E/B,/G/) z .[G,B,EG] | (F,/E/C/F/) z/ (E/C/A,/) | x2 B .[G,B,EG] | x2 B x || %18
[K:Eb]!p! x2 z [B,EGB] | x2"^(molto tranquilo)" z G |!mf! (x3/2 (A/)!<(! B/ce/)!<)! | !>!d2 z A | %22
 (x3/2 B/)!<(! (c/df/)!<)! | !>!e2 z G | (x3/2 (A/)!<(! B/ce/)!<)! | !>!d2 z A | %26
 (A3/2 B/)!<(! (c/df/)!<)! | e3/2 !>!g/- (g>d) | f3/2 !>!e/- (e/Bc/) | d3/2 !>!f/- (f>c) | %30
 e3/2 !>!d/- (d/cB/) | B3/2 !>!g/- (g>d) | f3/2 e/- (e/Bc/) | d3/2 d/-!>(! (d>c) | %34
{cd} (c/B/F/!>)!G/) (B/A/C/D/) ||"^a tempo\nanimato\n"!p! (E/B/G/e/) z/"^m.g." (B/G/E/) | %36
 (D/B/A/d/) z .[DABd] | (D/B/A/d/) z/ (B/A/D/) | (E/B/G/e/) z .[EGBe] | (E/B/G/e/) z/ (B/G/E/) | %40
 (D/B/A/d/) z .[DABd] | (D/B/A/d/) z/ (B/A/D/) | (E/B/G/e/) z .[EGBe] | (C/G/E/c/) z/ (G/E/C/) | %44
 (=B,/G/D/=B/) z .[B,EGB] | (_A,/F/C/_A/) z/ (F/C/A,/) | (G,/E/B,/G/) z .[G,B,EG] | %47
 (G,/E/B,/G/) z .[G,^B,CG] | (G,/E/B,/G/) z .[G,B,DG] | (G,/E/B,/G/) z .[G,CDG] | %50
 (^F,/D/C/^F/)"^m.g." d- !fermata!d/ D/ ||[K:Bb]!f! !>!G3/2 A/ B/c^c/ | !>!e [Dd] z a | %53
 b/da/- a/g^f/ |!>(! a>g-!>)! g3/2 g/- | g/x!<(!cde/!<)! | g- g2 d- | (d/!<(!^FABc/-)!<)! | %58
 c/B/ !arpeggio![Dd]2 !>!G- | G3/2 A/!<(! (B/c^c/)!<)! | (!>!e [Dd]) z a | (b/a/) !>!c'- (c'/ba/) | %62
 d'- d'2 x/ !>!g/- | g!>![db]- ([db]/ [dgb] [dgb]/) | [B-gb-] [Bb]2- [Beb] | %65
!>(! [Beb] !>![Be-b] e/ed/!>)! |!mf! !>![FBdf]/ z/ !>![FBdf]/ z/ !>![FBdf]/ z/ !>!F/B/ || %67
"^molto expressivo" d2- d z/ d/ | e2- e z/ [^G=B]/ | [Ec-]2 c3/2 z/ | z2 !>!f2 | %71
 [Dd-]2 (d/!arpeggio!!>![Gg]f/) | e3 z/ =B/- | B/c- c2 ^c/- | (^c2 d) z |!f! f!fermata!c'- c' b | %76
 [eae']2- [eae']2 |{/[_ae']} [ff']/[e_ae'][d-ad'-]/ ([dgd']/!>![cc']-[cc']/) | %78
{/[fg]} ([dd']/[cc']f/) !>![cc']/!fermata![Bb]-[Bb]/ ||[K:Eb]"^a tempo" x2"^m.g." [Be_g] x | %80
 x2 [ABf] x | x2 [_GBe] x | x2 [FBd] x | %83
[I:staff +1] (!>!B,/[I:staff -1]_G/E/B/)"^m.g." [e_gb] [B,EGB] | %84
!<(![I:staff +1] (!>!A,/[I:staff -1]D/B,/A/) [dab] [B,DA] | %85
[I:staff +1] (!>!_G,/[I:staff -1]E/B,/_G/) [ce_g] [B,EG] | %86
[I:staff +1] (!>!F,/[I:staff -1]D/B,/F/) [Bdf] [B,DF]!<)! |(!>!x/F/D/B/) z2 |(!>!x/_G/E/c/) z2 | %89
(!>!x/=G/=E/^c/) z2 |(x/B/F/d/) z2 |(!>!x/B/A/d/) z2 |(!>!x/B/_G/e/) z2 |(!>!x/B/=G/=e/) z2 | %94
(!>!x/B/A/f/) z2 |(!>!x/B/G/=e/) z2 |!ff! (3[Adf]/b/B/ (3z/ b/B/ (3z/ b/B/ (3z/ b/B/ || %97
 !arpeggio!!fermata![Bdb]2 | %98
!pp!!<(!!8va(! (3g'/a'/c''/ (3=e'/f'/a'/ (3g'/a'/c''/ (3e'/f'/a'/ (3g'/a'/c''/ (3e'/f'/a'/ (3g'/a'/c''/ (3e'/f'/a'/ (3_e'/f'/a'/ (3e'/f'/a'/ (3e'/f'/a'/ !tenuto!.d'!<)!!f! !tenuto!.f' !tenuto!.a' | %99
 (!>!g''/4f''/4e''/4d''/4c''/4) (b'/4=e'/4) (!>!c''/4b'/4!>(!a'/4g'/4f'/4) (e'/4b/4)!8va)! (!>!g'/4f'/4_e'/4d'/4c'/4) (b/4=e/4) (c'/4b/4a/4g/4f/4) (e/4B/4) (g/4f/4e/4d/4c/4) (B/4=E/4) (c/4B/4A/4G/4F/4) (E/4B,/4)!>)! | %100
 (G/4F/4E/4D/4C/4) x4 x2 x/ (D/[AB]/)"^m.d." (d/[ab]/)"^m.g." f' !fermata!b'!ff! !fermata![Gg] | %101
 (!>![Gg]/[Be]/) z/!<(! [ea]/ [gb]/[cc']/!<)! z/ [ee']/ | ([dd']/[ab]/) z/ c/ B/B/ z/ [DAB]/ | %103
 [Aa]/[Bd]/ z/!<(! ([db]/ [ac']/[dd']/)!<)! z/ [ff']/ | ([ee']/[gb]/) z/ c/ B/B/ z/ [GB]/ | %105
 (!>![Gg]/[Be]/) z/!<(! ([ea]/ [gb]/[cc']/)!<)! z/ [ee']/ | ([dd']/[ab]/) z/ c/ B/B/ z/ [DAB]/ | %107
 [Aa]/[Bd]/ z/!<(! ([db]/ [ac']/[dd']/)!<)! z/ [ff']/ | ([ee']/[gb]/) z/ !>!g/ z/ b/ z/ [dd']/ | %109
 ([ff']/[gb]/) z/ [ee']/ z/ [Bb]/ z/ [dd']/ | ([dd']/[ab]/) z/ !>!f/ z/ [ab]/ z/ c'/ | %111
 ([ee']/[ab]/) z/ !>![dd']/ z/ [cc']/ z/ [Bb]/ | ([Bb]/[eg]/) z/ !>!g/ z/ [Bb]/ z/ [dd']/ | %113
 ([ff']/[gc']/) z/ !>![ec']/ z/ c'/ z/ [Gcg]/ | %114
 [Bb]/[cf]/ z/{!fermata!g!fermata!a!fermata!b!fermata!a} !fermata![ac'a']/!>(! z/ [gg']/ z/ [ee']/ | %115
 [dad']/[cc']/ z/ [Gg]/ z/ [Aa]/ z/ d/!>)! |!pp!"^a tempo" ([Ee]/B/G/e/)"^m.g." z/ (B/G/E/) | %117
 (D/B/A/d/) z .[DABd] | (D/B/A/d/) z/ (B/A/D/) | (E/B/G/e/) z .[EGBe] | %120
 (!>!E/B/_G/e/) z/ (B/G/E/) | (D/B/A/d/) z .[DABd] | (D/B/A/d/) z/ (B/A/D/) | %123
 x2 x/[I:staff +1] (G,/4B,/4[I:staff -1]E/4F/4) (G/4B/4e/4f/4) (g/4b/4e'/4f'/4) g'2 !fermata![ege']2 z |] %124
V:2
 x2 !arpeggio![EFc] z | [EGB] x [=DAB] x | [EGB] x3 | x4 | x4 | x4 | x4 | x4 | x4 | x4 | x4 | %11
 !>!C2 z2 | !>!B,2 x2 | !>!A,2 x2 | !>!G,2 x2 | !>!F,2 x2 | x2 z x | x2 z x ||[K:Eb] x4 | %19
 x3 G/B,/ | G/E/B,/ x5/2 | d/A/D/ C/ x2 | A/D/B,/ x5/2 | e/G/E/ x5/2 | G/E/B,/ x5/2 | %25
 d/A/D/ C/ x2 |x/D/B,/ x5/2 |x/B/G/ x5/2 |x/B/G/ x5/2 |x/A/D/ x5/2 |x/A/D/ x5/2 |x/G/E/ x5/2 | %32
x/B/G/ x5/2 |x/A/D/ x5/2 | x4 || x4 | x4 | x4 | x4 | x4 | x4 | x4 | x4 | !>!C2 z2 | !>!=B,2 x2 | %45
 !>!A,2 x2 | !>!G,2 x2 | !>!G,2 x2 | !>!G,2 x2 | !>!G,2 x2 | !>!^F,2 x2 ||[K:Bb]x/E/D/ x5/2 | %52
 e/[E^F]/ z/ x5/2 | z/ d/ !>!c3- | c/c/B/A/ x2 | z/ G3 x/ | z/ d/G/- G2 z/ | x4 | !>!_E D2 x | %59
x/E/D/ x5/2 | e/[E^F]/ x3 | z !>![E^F=A]/D/ x2 | z/ ([da]/g/) ([Ad]/G/) x3/2 | x4 | fe- z B/e/ | %65
 x4 | x4 || d/B/G/F/ x2 | [Ee]/c/=A/G/ [Fe]/ z/ x | E/A/G/F/ E/ x3/2 | %70
 (D/B,/G,/F,/) ([Ff]/d/B/F/) | D/(B/G/F/) x2 |x/E/=E/G/ F/ x3/2 | ^G A/=G/ F/ x3/2 | %74
 _G/F/ z d/B/=G/F/ | z/ B/- B3 | z/ ([Ae]/G/F/) x2 | x4 | x4 ||[K:Eb] x4 | x4 | x4 | x4 | x2 z x | %84
 x2 z x | x2 z x | x2 z x | B,4 | C4 | ^C4 | !>!D4 | D4 | E4 | =E4 | F4 | =E4 | x4 || x2 | %98
!8va(! [ec'][db] [ec'][db] [ec'][db] [ec'][db] [_db] [cb] [_cb] [Bb]2 x | x7/2!8va)! x7 | x51/4 | %101
 x4 | x4 | x4 | x4 | x4 | x4 | x4 | x B/ x/ B/ x3/2 | x B/ x/ B/ x3/2 | x B/ x/ B/ x3/2 | %111
 x B/ x/ B/ x3/2 | x B/ x/ B/ x3/2 | x G/ x/ G/ x3/2 | x [FA] !fermata![FAcf]/ z/ [Ff]/ z/ | %115
 x F/ x/ B/ x/ c/ x/ | x4 | x4 | x4 | x4 | x4 | x4 | x4 | x21/2 |] %124
V:3
 z2 A, z | B, z B, z | x z E,, z |"_una corda"!ped! E, z x z!ped-up! |!ped! F, z x z | %5
 B,, z x z!ped-up! |!ped! E, z x z | E, z x z!ped-up! |!ped! F, z x z | B,, z x z!ped-up! | %10
!ped! E, z x z!ped-up! |!ped! [C,G,] z x z!ped-up! |!ped! [B,,G,] z x z!ped-up! | %13
!ped! [A,,F,] z x z!ped-up! |!ped! [G,,E,] z x z!ped-up! |!ped! [A,,E,] z x z!ped-up! | %16
!ped! (B,,/B,/G,/E/) x z!ped-up! |!ped! (=D,/B,/A,/=D/) x !fermata![D,A,B,D]!ped-up! || %18
[K:Eb]"_tre corde" z/ (B,/G,/C/) (B,/G,/E,/) z/ | z/ (B,/G,/C/) (B,/G,/E,/) z/ | %20
 E,, z/ C/ B,/G,/E,/B,,/ | F,, z B,/D,/B,,/ z/ | B,,, z/ C/ B,/A,/D,/B,,/ | %23
 E,, z/ C/ B,/G,/E,/B,,/ | E,, z/ C/ B,/G,/E,/B,,/ | F,, z B,/D,/B,,/ z/ | %26
 B,,, z/ C/ B,/A,/D,/B,,/ |!ped! E,, z/ C/ B,/G,/E,/B,,/ | G,, z/ C/ B,/G,/E,/B,,/!ped-up! | %29
!ped! F,, z/ C/ B,/A,/D,/B,,/ | B,,, z/ C/ B,/G,/E,/B,,/!ped-up! |!ped! E,, z/ C/ B,/G,/E,/B,,/ | %32
 G,, z/ C/ B,/G,/E,/B,,/!ped-up! | %33
!ped! F,, z/ C/"^ritard.  _      _      _     _     _" B,/G,/E,/B,,/!ped-up! | %34
!ped! (B,,,/B,,/ A,/B,/) D z!ped-up! ||!ped! [E,B,]"_(una corda)" z x z!ped-up! | %36
!ped! [F,B,] z x z | [B,,F,] z x z!ped-up! |!ped! [E,B,] z x z | [G,B,] z x z!ped-up! | %40
!ped! [F,B,] z x z | [B,,F,] z x z!ped-up! |!ped! [E,B,] z x z!ped-up! | %43
!ped! [C,G,] z x z!ped-up! |!ped! [G,,D,] z x z!ped-up! |!ped! [_A,,E,] z x z!ped-up! | %46
!ped! [E,,B,,] z x z!ped-up! |!ped! [E,,B,,] z x z!ped-up! |!ped! [D,,D,] z x z!ped-up! | %49
!ped! D,, z x z | D,, z z !fermata![^F,CD]!ped-up! ||[K:Bb] G,, z/ C/ B,/E,/D,/ z/ | %52
!ped! A,, z/ (C/ =A,/E,/D,/) z/!ped-up! |!ped! D,, z/ (^F/ D/C/^F,/) z/!ped-up! | %54
!ped! G,, z (G/D/B,/) z/!ped-up! |!ped! C,, (E/D/ C/G,/E,/) z/!ped-up! | %56
!ped! B,,, z/ (D/ !>!G,/E,/D,/) z/!ped-up! |!ped! A,,, (C/^F,/ D,/C/F,/D,/)!ped-up! | %58
!ped! G,, z/ (C/ B,/G,/D,/) z/!ped-up! |!ped! B,, z/ (C/ B,/E,/D,/) z/!ped-up! | %60
!ped! A,, z/ (C/ A,/E,/D,/) z/!ped-up! |!ped! D,, x C/A,/D,/ z/!ped-up! | %62
!ped! B,, z/ x [A,D]/G,/ z/!ped-up! |!ped! B,,, (B,/D/ _A/D/B,/) z/!ped-up! | %64
!ped! B,,, (B,/E/ B/E/B,/) z/!ped-up! |!ped! _G,, (B,/E/ _G/E/B,/) z/!ped-up! | %66
 F,,/ [=E,=E]/ z/ [G,G]/ z/ !>!D/ z ||!ped! [B,,,B,,] z D/B,/G,/F,/!ped-up! | %68
!ped! [C,,C,] z z/ E/A,/F,/!ped-up! |!ped! [F,,,F,,] z C/A,/F,/"_m.d." (F,,/!ped-up! | %70
"^m.g."!ped! G,,F,,/) z/ z2!ped-up! |!ped! B,, z (D/B,/G,/F,/)!ped-up! | %72
!ped! C, z z/ _E/A,/F,/!ped-up! |!ped! F,, z z/ (E/A,/F,/)!ped-up! | %74
!ped! B,,/ z/ (=G,/F,/) z2!ped-up! |"^m.g." D,/"^molto rall." z/ !fermata!z (D/B,/G,/F,/) | %76
"^m.g." C,/ x/ x"^m.d." ([A,E]/G,/F,/) z/ | %77
"^rall.   _      _      _       _      _      _       _       _"!ped! (=B,,/F,/_A,/=B,/)!ped-up!!ped! (E,/G,/=B,/C/)!ped-up! | %78
!ped! (F,,/F,/=A,/E/)!ped-up!!ped! (B,,/F,/B,/D/)!ped-up! || %79
[K:Eb]!ped! (!>!_G,/E/B,/_G/) z [G,B,EG]!ped-up! |!ped! (!>!F,/D/B,/F/) z [A,B,F]!ped-up! | %81
!ped! (!>!E,/B,/_G,/E/) z [G,B,E]!ped-up! |!ped! (!>!D,/B,/F,/D/) z [F,B,D]!ped-up! | %83
!ped! [B,,B,]"^cresc." z x z!ped-up! | B,, z x z | B,, z x z | B,, z x z | %87
"^cresc. sempre sin' al   -" B,,2 (D,/B,/F,/D/) | B,,2 (E,/=A,/_G,/E/) | B,,2 (=E,/B,/=G,/^C/) | %90
 B,,2 (F,/D/B,/F/) | B,,2 (F,/B,/=A,/F/) | B,,2 (_G,/E/B,/_G/) | B,,2 (=G,/=E/B,/=G/) | %94
 B,,2 (A,/D/B,/A/) | B,,2 (G,/=E/B,/G/) | !arpeggio![B,,F,A,D][B,^C=E=G][B,DFA][B,CE=G] || %97
 !arpeggio!!fermata![B,FA]2 | x8 x4"^veloce" x2 | x8 x2 x/ | %100
 x x/4 (B,/4=E,/4) (C/4B,/4A,/4G,/4F,/4) (E,/4B,,/4) (G,/4F,/4_E,/4D,/4C,/4)!ped! !arpeggio![B,,,B,,]2"^m.d." (D,/[A,B,]/)"^m.g." x4!ped-up! x | %101
!ped! [E,,E,]/ z/ B,/C/ B,/ z/ [G,,G,]/ z/!ped-up! |!ped! [F,,F,]/ z/ B,/C/ B,/ z/ [B,,,B,,]/ z/ | %103
 [F,,F,]/ z/ B,/C/ B,/ z/ [B,,,B,,]/ z/!ped-up! |!ped! [E,,E,]/ z/ B,/C/ B,/ z/ [G,,G,]/ z/ | %105
 [E,,E,]/ z/ B,/C/ B,/ z/ [G,,G,]/ z/!ped-up! |!ped! [F,,F,]/ z/ B,/C/ B,/ z/ [B,,,B,,]/ z/ | %107
 [F,,F,]/ z/ B,/C/ B,/ z/ [B,,,B,,]/ z/!ped-up! |!ped! [E,,E,]/ z/ B,/C/ B,/ z/ [G,,G,]/ z/ | %109
 [E,,E,]/ z/ B,/C/ B,/ z/ [G,,G,]/ z/!ped-up! |!ped! [F,,F,]/ z/ B,/C/ B,/ z/ [B,,,B,,]/ z/ | %111
 [F,,F,]/ z/ B,/C/ B,/ z/ [B,,,B,,]/ z/!ped-up! | [E,,E,]/ z/ B,/C/ B,/ z/ [G,,G,]/ z/ | %113
 [C,,C,]/ z/ G,/_A,/ G,/ z/ [=E,,=E,]/ z/ | %114
!ped! [F,,F,]/ z/ C"^ritard.  -         -        -       -         -" x2!ped-up! | %115
 [B,,,B,,]/ z/ F,/ z/ B,/ z/ C/ z/ |!ped! [E,,,E,,] z z2!ped-up! |!ped! [F,,F,] z x z!ped-up! | %118
!ped! [B,,,B,,] z x z!ped-up! |!ped! [E,,E,] z x z!ped-up! | %120
!ped! [_G,,_G,]"^rallentando    -      -" z x z | [F,,F,] z x z | [B,,,B,,] z x z!ped-up! | %123
 !arpeggio!!fermata![E,,,E,,]!ped! !tenuto!B,,/!tenuto!E,/!tenuto!F,/ x4 x !fermata![E,B,EG]2 z!ped-up! |] %124
V:4
 x4 | x4 | x4 | x2 b x | x2 b x | x2 b x | x2 b x | x2 b x | x2 b x | x2 b x | x2 b x | x2 g x | %12
 x2 g x | x2 f x | x2 e x | x2 e x | x4 | x4 ||[K:Eb] x4 | x4 | x4 | x4 | x4 | x4 | x4 | x4 | x4 | %27
 x4 | x4 | x4 | x4 | x4 | x4 | x4 | x4 || x2 b x | x2 b x | x2 b x | x2 b x | x2 b x | x2 b x | %41
 x2 b x | x2 b x | x2 g x | x2 g x | x2 e x | x2 ^c x | x2 ^c x | x2 d x | x2 d x | x4 || %51
[K:Bb] x4 | x4 | x4 | x4 | x4 | x4 | x4 | x4 | x4 | x4 | x4 | x4 | x4 | x4 | x4 | x4 || x4 | x4 | %69
 x4 | x4 | x4 | x4 | x4 | x4 | x (G/F/) x2 | x4 | x4 | x4 ||[K:Eb] x4 | x4 | x4 | x4 | x4 | x4 | %85
 x4 | x4 | x4 | x4 | x4 | x4 | x4 | x4 | x4 | x4 | x4 | x4 || x2 |!8va(! x14 | x7/2!8va)! x7 | %100
 x51/4 | x4 | x4 | x4 | x4 | x4 | x4 | x4 | x4 | x4 | x4 | x4 | x4 | x4 | x4 | x4 | x2 b x | %117
 x2 b x | x2 b x | x2 b x | E2 b x | x2 b x | x2 b x | x21/2 |] %124
V:5
 x4 | x4 | x4 | x4 | x4 | x4 | x4 | x4 | x4 | x4 | x4 | x4 | x4 | x4 | x4 | x4 | B,, z x2 | %17
 B,,, z x z ||[K:Eb] [E,,B,,] z x2 | [E,,B,,] z x2 | x4 | x4 | x4 | x4 | x4 | x4 | x4 | x4 | x4 | %29
 x4 | x4 | x4 | x4 | x4 | x4 || x4 | x4 | x4 | x4 | x4 | x4 | x4 | x4 | x4 | x4 | x4 | x4 | x4 | %48
 x4 | x4 | x4 ||[K:Bb] x4 | x4 | x4 | x4 | x4 | x4 | x4 | x4 | x4 | x4 | x4 | x5/2 z x/ | x4 | x4 | %65
 x4 | x4 || x4 | x4 | x4 | x4 | x4 | x4 | x4 | x4 | x4 | x4 | x4 | x4 ||[K:Eb] [B,,,B,,_G,] z x z | %80
 [B,,,B,,F,] z x z | [B,,,B,,E,] z x z | [B,,,B,,] z x z | x4 | x4 | x4 | x4 | x4 | x4 | x4 | x4 | %91
 x4 | x4 | x4 | x4 | x4 | x4 || x2 | x14 | x21/2 | x51/4 | x4 | x4 | x4 | x4 | x4 | x4 | x4 | x4 | %109
 x4 | x4 | x4 | x4 | x4 | x4 | x4 | x4 | x4 | x4 | x4 | x4 | x4 | x4 | x21/2 |] %124

